X:111
T:Miss Hamilton's Jigg. THO1.111
M:6/8
L:1/8
Z:vmp. Peter Dunk 2012.from a transcription by Fynn Titford-Mock 2006
B:Thompson's Compleat Collection of 200 Favourite Country Dances Vol.I,1758
Q:3/8=100
K:D
A|FDA d2 f|(ea)c d2 f|(ea)c (df)B|ce^G A2 A|\
FDA d2 f|(ea)c d2 f|(e^g)a (cd)B| A3-A2:|
|:A|^cAc efg| ABc d2 f| geb gfe|df^AB2 =A|\
FDF AFA|dAd (f/g/a)g|fed ABc| d3-d2:|

